!!!COM: Palestrina, Giovanni Perluigi da
!!!OPR: Gabriel Archangelus
!!!OTL: Gloria
**kern	**kern	**kern	**kern
*Ibass	*Itenor	*Icalto	*Icant
!Bassus	!Tenor	!Altus	!Cantus
*clefF4	*clefGv2	*clefG2	*clefG2
*k[b-]	*k[b-]	*k[b-]	*k[b-]
*D:aeo	*D:aeo	*D:aeo	*D:aeo
*M4/2	*M4/2	*M4/2	*M4/2
=1	=1	=1	=1
0r	0d	0r	0r
=2	=2	=2	=2
0r	1G	0r	0r
.	[1d	.	.
=3	=3	=3	=3
0r	2d]	0a	0r
.	2c#	.	.
.	2.d	.	.
.	4c	.	.
=4	=4	=4	=4
0r	2B-	1d	0r
.	2B-	.	.
.	2A	[1a	.
.	[2d	.	.
=5	=5	=5	=5
0r	2d]	2a]	0r
.	2e	2g#	.
.	2f	2a	.
.	2c	2a	.
=6	=6	=6	=6
0r	2.d	2.f	0dd
.	4e	4g	.
.	2f	2a	.
.	2g	[2b-	.
=7	=7	=7	=7
1r	1e-	2b-]	1g
.	.	4a	.
.	.	4g	.
2r	1d	2f	[1dd
[2G	.	2g	.
=8	=8	=8	=8
2G]	1r	1e	2dd]
2A	.	.	2cc#
2B-	2r	1d	2dd
2F	[2d	.	2dd
=9	=9	=9	=9
1G	2d]	1r	2b-
.	2e	.	2b-
2.F	2f	2r	1a
.	2c	[2a	.
4E	.	.	.
=10	=10	=10	=10
1D	2.d	2a]	2r
.	.	2a	1dd
.	4c	.	.
1r	2B-	2b-	.
.	2c	2g	2ee
=11	=11	=11	=11
0r	2d	4f	2ff
.	.	4g	.
.	2A	2.a	2cc
.	1B-	.	1dd
.	.	8g	.
.	.	8f	.
.	.	2g	.
=12	=12	=12	=12
2r	1A	2a	2.cc
2A	.	2e	.
.	.	.	4b-
2F	2r	[1f	[1a
2D	2d	.	.
=13	=13	=13	=13
2.F	2c	1f]	1a]
.	2A	.	.
4G	.	.	.
[1A	2.c	1e	1r
.	4d	.	.
=14	=14	=14	=14
2A]	2e	0r	0r
2F	2f	.	.
2.G	2e	.	.
.	[2d	.	.
4F	.	.	.
=15	=15	=15	=15
1E	2d]	2r	1r
.	2c#	1g	.
1D	1d	.	2r
.	.	2f	[2dd
=16	=16	=16	=16
0r	0r	2d	2dd]
.	.	2e	2cc
.	.	2f	2a
.	.	2g	2b-
=17	=17	=17	=17
0r	0r	2e	2cc
.	.	4d	1dd
.	.	4e	.
.	.	4f	.
.	.	4g	.
.	.	4a	2cc
.	.	4f	.
=18	=18	=18	=18
1r	2r	1g	1b-
.	1g	.	.
2r	.	1d	[1a
[2d	2f	.	.
=19	=19	=19	=19
2d]	2d	1r	1a]
2c	2e	.	.
2A	2f	2r	1r
2B-	2g	[2g	.
=20	=20	=20	=20
2c	2e	2g]	0r
1d	4d	2f	.
.	4e	.	.
.	4f	2d	.
.	4g	.	.
2c	[2a	2e	.
=21	=21	=21	=21
1B-	2a]	2f	2r
.	2g	4e	2dd
.	.	4d	.
1A	2.a	1e	2dd
.	.	.	2cc
.	4g	.	.
=22	=22	=22	=22
1r	2f	2r	2a
.	2g	2g	2b-
2r	2e	2g	2cc
2d	2d	2f	2dd
=23	=23	=23	=23
2d	1r	2d	2ff
2c	.	2e	1ee
2A	2r	2f	.
2B-	2g	2g	2dd
=24	=24	=24	=24
2c	2g	2.a	2cc
1d	2f	.	1ff
.	.	4g	.
.	2d	2f	.
2c	2e	[2a	[2ee
=25	=25	=25	=25
1B-	2f	2a]	4ee]
.	.	.	4dd
.	4e	2g	1dd
.	4d	.	.
1A	1e	2.a	.
.	.	.	2cc#
.	.	4g	.
=26	=26	=26	=26
2r	1d	2f	2.dd
1G	.	2g	.
.	.	.	4cc
.	1r	[1d	2b-
2G	.	.	4a
.	.	.	4g
=27	=27	=27	=27
2F	2r	1d]	2a
1B-	1d	.	2f
.	.	1r	1b-
2G	2d	.	.
=28	=28	=28	=28
2.A	2c	0r	1a
.	1f	.	.
4G	.	.	.
2F	.	.	1r
[2G	2d	.	.
=29	=29	=29	=29
4G]	2e	1r	0r
4F	.	.	.
4D	2.f	.	.
4E	.	.	.
2F	.	2r	.
.	4e	.	.
2G	[2d	2g	.
=30	=30	=30	=30
1E	2d]	2g	1r
.	2c#	1g	.
1D	2d	.	2r
.	2d	2f	2dd
=31	=31	=31	=31
0r	2G	2b-	2dd
.	2B-	2g	1dd
.	1A	2.a	.
.	.	.	2cc
.	.	4g	.
=32	=32	=32	=32
0r	2d	2f	2ff
.	2B-	2.g	2dd
.	2c	.	2ee
.	.	4f	.
.	[2d	4d	[2ff
.	.	4e	.
=33	=33	=33	=33
0r	2d]	2f	4ff]
.	.	.	4ee
.	2G	2g	1dd
.	1A	1e	.
.	.	.	2cc#
=34	=34	=34	=34
2r	1d	2.d	2.dd
1d	.	.	.
.	.	4e	4cc
.	1r	4f	2b-
.	.	4g	.
2d	.	[2f	4a
.	.	.	4g
=35	=35	=35	=35
1d	1r	2f]	0a
.	.	4e	.
.	.	4d	.
1c	2r	2e	.
.	[2a	2A	.
=36	=36	=36	=36
2A	2a]	2c	0r
1d	2a	2d	.
.	1a	1A	.
2c#	.	.	.
=37	=37	=37	=37
2.d	1f	0r	2r
.	.	.	1dd
4c	.	.	.
2B-	2d	.	.
4G	[2g	.	2dd
4A	.	.	.
=38	=38	=38	=38
4B-	2g]	1r	1dd
4c	.	.	.
2d	2f	.	.
1A	2e	2r	1cc
.	[2f	[2a	.
=39	=39	=39	=39
1D	2f]	2a]	2a
.	4e	2a	1dd
.	4d	.	.
1A	1e	1a	.
.	.	.	2cc#
=40	=40	=40	=40
2r	1d	1f	2.dd
1d	.	.	.
.	.	.	4cc
.	1r	2d	2b-
2d	.	[2f	4a
.	.	.	4g
=41	=41	=41	=41
1d	1r	2f]	2.a
.	.	4e	.
.	.	4d	4b-
2.c	2r	2e	4cc
.	.	.	4dd
.	[2a	2A	[2ee
4B-	.	.	.
=42	=42	=42	=42
2A	2a]	2c	4ee]
.	.	.	4cc
2d	2a	2d	2ff
2d	1a	1A	1ee
2c#	.	.	.
=43	=43	=43	=43
1d	2.f	1r	2r
.	.	.	1dd
.	4e	.	.
1G	4d	2r	.
.	4c	.	.
.	4B-	[2g	2dd
.	4A	.	.
=44	=44	=44	=44
1B-	1G	2g]	1dd
.	.	2g	.
1c	1r	1g	2.cc
.	.	.	4b-
=45	=45	=45	=45
1d	2r	2.f	2a
.	2d	.	2dd
.	.	4e	.
1r	2f	2d	2dd
.	2e	2g	2cc
=46	=46	=46	=46
1r	2.d	2g	2b-
.	.	2f	1a
.	4c	.	.
2r	1B-	[1d	.
[2G	.	.	2g
=47	=47	=47	=47
4G]	2A	1d]	1a
4G	.	.	.
2F#	2.d	.	.
2G	.	1e	1r
.	4d	.	.
2A	2c#	.	.
=48	=48	=48	=48
1B-	2d	0r	2r
.	2d	.	2.dd
1A	2f	.	.
.	.	.	4dd
.	[2e	.	2cc#
=49	=49	=49	=49
2G	4e]	0r	1dd
.	4d	.	.
2F	1d	.	.
1E	.	.	1ee
.	2c#	.	.
=50	=50	=50	=50
1D	2d	2r	1.ff
.	2B-	2.d	.
1r	1A	.	.
.	.	4d	.
.	.	2c#	2ee
=51	=51	=51	=51
1r	2B-	2d	2dd
.	2c	2e	4cc
.	.	.	4b-
1D	1d	2.f	2a
.	.	.	[2b-
.	.	4e	.
=52	=52	=52	=52
1F	1r	2d	4b-]
.	.	.	4a
.	.	2c	1a
1G	1d	2B-	.
.	.	2B-	2g
=53	=53	=53	=53
0D	2f	1A	1a
.	2.f	.	.
.	.	1d	2r
.	4e	.	.
.	4d	.	[2dd
.	4c	.	.
=54	=54	=54	=54
0r	2B-	1f	2dd]
.	2A	.	2cc
.	2G	1g	1b-
.	[2g	.	.
=55	=55	=55	=55
2r	2g]	1d	[0a
1d	1f	.	.
.	.	1r	.
2c#	2e	.	.
=56	=56	=56	=56
2.d	2.f	2r	1a]
.	.	1a	.
4c	8e	.	.
.	8d	.	.
2A	2c	.	1r
[2B-	2d	2f	.
=57	=57	=57	=57
4B-]	2.G	1g	1r
4A	.	.	.
1G	.	.	.
.	4B-	.	.
.	1A	1a	2r
2F#	.	.	[2dd
=58	=58	=58	=58
1G	1G	2d	2dd]
.	.	2g	2b-
1r	1r	2f	1cc
.	.	2e	.
=59	=59	=59	=59
0r	2r	2d	1dd
.	1d	2.f	.
.	.	.	2a
.	.	4e	.
.	2B-	4f	2dd
.	.	4g	.
=60	=60	=60	=60
0r	1c	2a	2cc
.	.	1g	2b-
.	1d	.	2a
.	.	2f	[2dd
=61	=61	=61	=61
2r	1A	2.e	2dd]
1A	.	.	4cc
.	.	4d	4b
.	1a	2e	[1cc
2F	.	2f	.
=62	=62	=62	=62
1G	2g	2e	2cc]
.	2f	1d	2b-
1A	1e	.	1a
.	.	2c#	.
=63	=63	=63	=63
1D	1d	2d	1a
.	.	1a	.
1d	1f	.	1r
.	.	2f	.
=64	=64	=64	=64
2c	2e	1g	2r
2B-	2d	.	1dd
1A	2e	1a	.
.	2f#	.	2cc
=65	=65	=65	=65
1G	1g	2d	1b-
.	.	1g	.
2r	1d	.	2.a
[2d	.	4f	.
.	.	4e	4g
=66	=66	=66	=66
2d]	2r	2f	2a
2B-	1g	2d	2b-
1c	.	1e	1g
.	2e	.	.
=67	=67	=67	=67
1d	1f	0d	2r
.	.	.	1dd
1G	1g	.	.
.	.	.	2b-
=68	=68	=68	=68
1A	2f	0r	1cc
.	2.e	.	.
2G	.	.	1dd
.	4d	.	.
2F	[2d	.	.
=69	=69	=69	=69
1E	2d]	2r	2.g
.	2c#	1g	.
.	.	.	4a
2D	1d	.	2b-
2d	.	2f#	4a
.	.	.	4b-
=70	=70	=70	=70
2c	2r	1g	4cc
.	.	.	8b-
.	.	.	8cc
2B-	2d	.	1dd
1A	2e	1a	.
.	2f#	.	2cc
=71	=71	=71	=71
0G	1g	1d	0b-
.	1d	[1g	.
=72	=72	=72	=72
0D	0d	2g]	0a
.	.	4f	.
.	.	4e	.
.	.	1f#	.
=73	=73	=73	=73
0r	0d	0a	0r
=74	=74	=74	=74
0r	1g	1b-	0dd
.	2g	2b-	.
.	2g	2b-	.
=75	=75	=75	=75
0r	2.f	1a	1ff
.	4e	.	.
.	1d	1f	2ff
.	.	.	2ff
=76	=76	=76	=76
1r	2.c	1g	1ee
.	4d	.	.
1A	2e	1a	1cc
.	[2f	.	.
=77	=77	=77	=77
1B-	4f]	2.d	0dd
.	4e	.	.
.	4d	.	.
.	4c	4e	.
2B-	1d	2f	.
2B-	.	2g	.
=78	=78	=78	=78
1A	2e	1.a	1.cc
.	2.f	.	.
1F	.	.	.
.	4e	.	.
.	[2d	[2f	4b-
.	.	.	4a
=79	=79	=79	=79
0G	2d]	2f]	0b-
.	2c	4e	.
.	.	4d	.
.	1B-	1e	.
=80	=80	=80	=80
0F	0c	1f	1a
.	.	2r	2r
.	.	[2a	[2cc
=81	=81	=81	=81
0r	0r	2a]	2cc]
.	.	2f	2a
.	.	2g	2b-
.	.	2a	2cc
=82	=82	=82	=82
2r	0r	2.f	2.a
1d	.	.	.
.	.	4e	4g
.	.	2f	2a
2B-	.	[2g	[2b-
=83	=83	=83	=83
2c	2r	2g]	4b-]
.	.	.	4a
2d	1f	4f	1a
.	.	4e	.
1B-	.	1d	.
.	2d	.	2g
=84	=84	=84	=84
1A	2e	2.c	0a
.	2f	.	.
.	.	8d	.
.	.	8e	.
2r	1d	1f	.
2D	.	.	.
=85	=85	=85	=85
1A	2.c	2.e	1r
.	4d	4d	.
2A	2e	1c	1a
2A	[2f	.	.
=86	=86	=86	=86
2B-	4f]	1r	1dd
.	4d	.	.
2G	2.g	.	.
1B-	.	1d	2dd
.	4f	.	.
.	2d	.	2dd
=87	=87	=87	=87
2.A	1e	1a	2.cc
4B-	.	.	4dd
2c	1r	2a	2ee
2d	.	2a	2ff
=88	=88	=88	=88
2G	1r	2b-	2dd
1d	.	2a	1ff
.	2r	4b-	.
.	.	4a	.
2c	2A	[2a	2ee
=89	=89	=89	=89
0B-	1d	2a]	1dd
.	.	4g	.
.	.	4f	.
.	2d	1g	1r
.	2d	.	.
=90	=90	=90	=90
1A	2.c	2a	1r
.	.	4A	.
.	4d	4B	.
1r	2e	4c	[1a
.	.	4A	.
.	2f	[2d	.
=91	=91	=91	=91
1.A	1e	2d]	2a]
.	.	2c#	2a
.	1e	2r	1a
2A	.	[2a	.
=92	=92	=92	=92
0D	2r	2a]	2r
.	1f	2a	1dd
.	.	[1a	.
.	2f	.	2dd
=93	=93	=93	=93
1.A	0e	1a]	1cc
.	.	2r	1cc
2A	.	[2a	.
=94	=94	=94	=94
2F	2r	2a]	1ff
2D	1d	2a	.
1B-	.	2f	2dd
.	2d	2d	[2ff
=95	=95	=95	=95
1A	2c	1a	2ff]
.	2c	.	2.ee
1D	2f	1a	.
.	.	.	4dd
.	2d	.	[2dd
=96	=96	=96	=96
0A	2f	0a	2dd]
.	4e	.	4cc
.	4d	.	4b
.	1e	.	1cc#
=97	=97	=97	=97
0D	1d	1f	0dd
.	2r	2r	.
.	2d	2a	.
=98	=98	=98	=98
0r	1g	1b-	2r
.	.	.	2dd
.	2f	2a	1ff
.	2d	2f	.
=99	=99	=99	=99
0r	2e	2g	2ee
.	2f	2f	2cc
.	4B-	4d	2.dd
.	4c	4e	.
.	4d	4f	.
.	4e	4g	4dd
=100	=100	=100	=100
0r	2f	2a	2cc
.	1B-	2.b-	1dd
.	.	4a	.
.	2F	[2a	2cc
=101	=101	=101	=101
1r	1G	2a]	1b-
.	.	2g	.
2r	1d	4a	[1a
.	.	4g	.
2d	.	4f	.
.	.	4e	.
=102	=102	=102	=102
2f	1r	1d	0a]
1d	.	.	.
.	1e	1A	.
2c#	.	.	.
=103	=103	=103	=103
1d	2f	2r	0r
.	1d	2a	.
2G	.	2b-	.
2A	2c#	[2a	.
=104	=104	=104	=104
2D	2d	2a]	1r
1d	2B-	2g	.
.	1A	2.a	1ee
2c#	.	.	.
.	.	4g	.
=105	=105	=105	=105
2d	0r	2f	2ff
2G	.	2g	1dd
1A	.	1e	.
.	.	.	2cc#
=106	=106	=106	=106
1r	2r	2d	2dd
.	1g	2G	2b-
2r	.	1d	[1a
[2d	2f	.	.
=107	=107	=107	=107
2d]	2d	2r	1a]
2c	2e	1a	.
2A	2f	.	1r
2B-	[2g	2g	.
=108	=108	=108	=108
2c	2g]	2e	0r
1d	2f	2f	.
.	1e	2g	.
2c	.	[2a	.
=109	=109	=109	=109
1B-	1d	4a]	2r
.	.	8g	.
.	.	8f	.
.	.	2g	1dd
1A	2r	1a	.
.	[2a	.	2cc
=110	=110	=110	=110
2r	4a]	1d	2a
.	4g	.	.
2d	2f	.	2b-
2c	2e	2r	2cc
2B-	2d	2d	[2dd
=111	=111	=111	=111
2A	2a	2e	2dd]
2A	2a	2f#	2cc
1G	2d	2g	1b-
.	[2g	2g	.
=112	=112	=112	=112
2r	2g]	1d	1a
2d	2f	.	.
2c	2e	2r	1r
2B-	2d	2g	.
=113	=113	=113	=113
1A	2d	2f	1r
.	2c#	2e	.
2.B-	1d	4d	2r
.	.	4e	.
.	.	4f	2dd
4A	.	4g	.
=114	=114	=114	=114
2F	1r	2a	2cc
2G	.	1g	2b-
1D	2r	.	2.a
.	2d	2f	.
.	.	.	4b-
=115	=115	=115	=115
0r	2c	2e	2cc
.	2B-	2d	1dd
.	2.A	2.e	.
.	.	.	[2cc
.	4B-	4d	.
=116	=116	=116	=116
0r	2c	2e	4cc]
.	.	.	4b-
.	2d	1f	1a
.	2B-	.	.
.	2B-	4e	2g
.	.	4d	.
=117	=117	=117	=117
1r	1A	[0e	0a
1A	2r	.	.
.	[2a	.	.
=118	=118	=118	=118
1c	2a]	1e]	1r
.	2g	.	.
1d	1f	1r	1a
=119	=119	=119	=119
1A	1e	2r	1cc
.	.	1a	.
1r	2d	.	1dd
.	2G	2g	.
=120	=120	=120	=120
2r	1d	1f	1a
1d	.	.	.
.	1A	1e	1r
2c	.	.	.
=121	=121	=121	=121
1B-	2r	1d	1.dd
.	2d	.	.
1A	1f	1r	.
.	.	.	2cc
=122	=122	=122	=122
1G	1g	2r	2.b-
.	.	2g	.
.	.	.	8a
.	.	.	8g
2r	1d	2f	2a
2G	.	2d	2b-
=123	=123	=123	=123
2F	2r	2.f	1a
2D	2d	.	.
.	.	4g	.
2.F	2c	2.a	1r
.	2A	.	.
4G	.	4g	.
=124	=124	=124	=124
1A	1c	2e	1r
.	.	1a	.
1B-	2.d	.	2r
.	.	2g	2dd
.	4e	.	.
=125	=125	=125	=125
1.A	2f	1a	2cc
.	2e	.	2a
.	2A	1r	2cc
4G	[2d	.	2dd
4F	.	.	.
=126	=126	=126	=126
1E	2d]	2r	1ee
.	2c#	2g	.
1D	[1d	2f	[1ff
.	.	2d	.
=127	=127	=127	=127
1r	2d]	2f	2ff]
.	4c	2g	4ee
.	4B-	.	4dd
2r	1A	1a	4cc
.	.	.	4dd
2A	.	.	4ee
.	.	.	4cc
=128	=128	=128	=128
1.B-	2r	1d	1dd
.	2d	.	.
.	[1f	1r	1r
2A	.	.	.
=129	=129	=129	=129
2F	2f]	1r	0r
2G	2e	.	.
2E	2c	2r	.
2D	[2d	2a	.
=130	=130	=130	=130
1G	2d]	1.b-	2r
.	2B-	.	2dd
1F	2.c	.	[1ff
.	.	2a	.
.	8B-	.	.
.	8c	.	.
=131	=131	=131	=131
0r	2d	2f	2ff]
.	1c	2g	2ee
.	.	2e	2cc
.	4B-	[2d	2dd
.	4A	.	.
=132	=132	=132	=132
1r	2G	2d]	2b-
.	2A	2c#	1a
2r	1B-	1d	.
2d	.	.	2g
=133	=133	=133	=133
2f	4A	1r	0a
.	4B-	.	.
2e	4c	.	.
.	4d	.	.
2c	2e	2r	.
[2d	2f	2a	.
=134	=134	=134	=134
2d]	1d	1b-	2r
2G	.	.	2dd
1d	1r	2a	[1ff
.	.	2f	.
=135	=135	=135	=135
2.c	2r	1g	2ff]
.	1e	.	2ee
4B-	.	.	.
4A	.	1a	2cc
4G	.	.	.
4F	[2f	.	[2dd
4E	.	.	.
=136	=136	=136	=136
2D	2f]	2.a	2dd]
1A	2e	.	2cc
.	.	8g	.
.	.	8f	.
.	2c	2e	1a
2F	[2d	2f	.
=137	=137	=137	=137
2G	2d]	2d	2b-
2A	2c#	2.f	1a
1B-	1d	.	.
.	.	4e	.
.	.	[2d	2g
=138	=138	=138	=138
1A	1e	2d]	0a
.	.	2c#	.
2r	[1d	2d	.
[2d	.	[2f	.
=139	=139	=139	=139
4d]	1d]	4f]	2r
4c	.	4e	.
2B-	.	2d	2.ff
2A	2r	2c	.
.	.	.	4ee
2B-	[2f	2d	2dd
=140	=140	=140	=140
0F	4f]	2A	2cc
.	4e	.	.
.	2d	2.a	2dd
.	2c	.	2.a
.	.	4g	.
.	2d	2f	.
.	.	.	4b-
=141	=141	=141	=141
2r	2A	2e	2cc
2.B-	2d	2f	2.dd
.	2r	[1d	.
4A	.	.	4cc
2G	[2d	.	2b-
=142	=142	=142	=142
2F	4d]	0d]	2a
.	4c	.	.
2G	2B-	.	2b-
2D	2A	.	2f
[2d	2B-	.	[2ff
=143	=143	=143	=143
4d]	2F	0r	4ff]
4c	.	.	4ee
2B-	2.f	.	2dd
2A	.	.	2cc
.	4e	.	.
2B-	2d	.	2dd
=144	=144	=144	=144
2F	2c	2r	2.a
2.f	2d	2.a	.
.	.	.	4b-
.	2A	.	2cc
4e	.	4g	.
2d	[2a	2f	2dd
=145	=145	=145	=145
2c	4a]	2e	2ee
.	4g	.	.
2d	2f	2f	4a
.	.	.	4b-
2.A	2e	2c	4cc
.	.	.	4dd
.	[2a	[2cc	2ee
4B-	.	.	.
=146	=146	=146	=146
2c	4a]	4cc]	2cc
.	4g	4b-	.
1d	4f	4a	2.ff
.	4e	4g	.
.	2f	2a	.
.	.	.	4ee
2G	2g	2b-	[2dd
=147	=147	=147	=147
0A	0e	0a	2dd]
.	.	.	4cc
.	.	.	4b
.	.	.	1cc#
=148	=148	=148	=148
1r	[0d	1f	2dd
.	.	.	2.ff
2.B-	.	2r	.
.	.	.	4ee
.	.	[2b-	4dd
4A	.	.	4cc
=149	=149	=149	=149
2G	1d_	2b-]	2.dd
2F#	.	2a	.
.	.	.	4cc
1G	1d_	1g	1b-
=150	=150	=150	=150
[0D	0d]	[0f#	[0a
=151	=151	=151	=151
0D]	0d	0f#]	0a]
==	==	==	==
*-	*-	*-	*-
!!!CDT: 1525/^1526/-1594/2/2
!!!OCY: Italia
!!!AGN: Mass (Parody)
!!!AST: renaissance, vocal
!!!ASW: Motet 1532 (Verdelot)
!!!PWK: Masses, Book I
!!!RNB: Cadence finals: A,F
!!!YOR: Le Opere Complete, v. 1, p. 93
!!!YOO: Rome, Italy: Fratelli Scalera
!!!END: 1992//
!!!EED: John Miller
!!!YEC: Copyright 2000, John Miller
!!!YEN: United States of America
!!!YEM: Rights to all derivative electronic formats reserved.
!!!YEM: Refer to licensing agreement for further details.
!!!YEM: This file must be accompanied by the licensing agreement.
!!!YEM: A copy of the licensing agreement may be found at http://www.music-cog.ohio-state.edu/HumdrumDatabases/Palestrina/license.txt
!!!EMD: converted to Humdrum by Bret Aarden
